pwa/public/blue.svg

<svg width="249" height="111" viewBox="0 0 249 111" fill="none" xmlns="http://www.w3.org/2000/svg">
<path d="M51.4895 72.239V88.1542H41.7284V72.9047C41.7284 67.0929 40.7528 65.4594 37.1549 65.4594C31.8484 65.4594 30.6253 70.0578 30.6253 77.4418V88.1542H20.8642V72.9047C20.8642 67.0929 19.8886 65.4594 16.2907 65.4594C10.9842 65.4594 9.76107 70.0578 9.76107 77.4418V88.1542H0V57.5892H9.76107V60.6768L7.92878 66.1251H10.3702C11.5886 60.6768 14.3965 56.9849 20.374 56.9849C26.3515 56.9849 28.6122 60.7996 29.5259 66.1251H31.2963C32.5147 60.6768 35.2607 56.9849 41.243 56.9849C49.1147 56.9849 51.4943 64.0053 51.4943 72.2343L51.4895 72.239Z" fill="black"/>
<path d="M55.1494 88.1543V79.6797H63.873V65.7003L56.3678 66.0638V57.5893L67.9611 56.9849C71.3782 56.8055 73.2676 58.6799 73.2676 62.0697V79.6797H81.9912V88.1543H55.1494V88.1543Z" fill="black"/>
<path d="M95.4166 76.8375V88.1542H85.6555V57.5892H95.4166V61.2812L93.5843 66.7294H96.0258C97.2441 61.2811 101.09 56.9849 107.676 56.9849C115.548 56.9849 120.307 62.1876 120.307 71.63V88.1542H110.546V73.1455C110.546 67.5792 108.899 65.4594 104.202 65.4594C98.8955 65.4594 95.4166 68.2449 95.4166 76.8375V76.8375Z" fill="black"/>
<path d="M140.438 80.2887L151.784 79.6844V88.1589L135.86 88.7632C132.505 88.886 130.673 86.9456 130.673 83.6171V66.0637H123.353V57.5892H130.673V51.8388L140.434 48.8125V57.5892H150.561V66.0637H140.434V80.284L140.438 80.2887Z" fill="black"/>
<path d="M162.307 102.521L173.653 101.916V110.391L157.729 110.995C154.373 111.118 152.541 109.178 152.541 105.849V88.2958H145.221V80.1943L152.541 79.453V74.0756L162.302 71.0493V79.826H172.43V88.3006H162.302V102.521H162.307Z" fill="#3F68FF"/>
<path d="M192.323 79.2217C201.903 79.2217 208.614 84.8493 208.614 94.1123V97.1386H185.246C185.246 100.646 187.807 103.13 193.361 103.13C196.778 103.13 199.338 101.921 199.947 99.622H209.708C209.099 104.041 204.035 111 193.361 111C181.524 111 176.094 103.375 176.094 94.7214C176.094 85.0382 182.743 79.2264 192.323 79.2264V79.2217ZM199.462 91.6904C199.462 89.3911 197.753 87.0919 192.323 87.0919C186.893 87.0919 185.246 89.3911 185.246 91.6904H199.462Z" fill="#3F68FF"/>
<path d="M225.085 92.4127L234.784 91.0813C234.784 88.598 232.833 87.0872 228.621 87.0872C224.719 87.0872 222.52 88.7207 222.52 91.5062H213.368C213.368 83.7587 220.017 79.2217 228.621 79.2217C237.226 79.2217 244.545 83.2772 244.545 93.3239V101.916H249V110.391H242.228C239.301 110.391 237.654 108.757 237.654 105.854V105.25L239.177 101.619H236.736C235.574 106.704 232.586 111 223.986 111C214.406 111 212.759 105.188 212.759 102.044C212.759 96.7798 215.933 93.6921 225.08 92.4221L225.085 92.4127ZM225.88 102.521C231.248 102.521 234.789 100.283 234.789 96.5296L226.917 97.6202C223.991 98.0451 222.525 98.4653 222.525 100.222C222.525 101.978 224.233 102.521 225.88 102.521Z" fill="#3F68FF"/>
<path d="M67.0092 44.5729C64.3774 44.5871 61.698 46.773 61.7789 49.889C61.8598 53.0333 64.4155 55.1201 67.0473 55.0728C70.2264 55.0162 72.2538 52.4573 72.3109 49.8323C72.3776 46.7399 69.641 44.554 67.0092 44.5682V44.5729Z" fill="#3F68FF"/>
<path d="M75.1475 18.1342C80.6396 18.0398 84.1376 13.6208 84.2375 9.08841C84.3517 3.74874 79.6259 -0.0234958 75.0808 0.00011017C70.5358 0.0237161 65.9099 3.80067 66.0479 9.17811C66.186 14.6028 70.6025 18.2098 75.1475 18.1295V18.1342Z" fill="#3F68FF"/>
<path d="M91.3524 19.2719C82.1767 19.3192 72.8535 26.9392 73.1295 37.7979C73.4055 48.7416 82.3147 56.0217 91.4904 55.8612C102.56 55.6676 109.632 46.754 109.828 37.6091C110.061 26.8353 100.528 19.2247 91.3524 19.2719V19.2719ZM91.4809 49.3554C86.2839 49.4451 81.2391 45.3141 81.0821 39.1057C80.925 32.9492 86.2172 28.6435 91.4143 28.6199C96.616 28.5916 102.008 32.9068 101.875 39.0113C101.765 44.1904 97.7535 49.2468 91.4761 49.3554H91.4809Z" fill="#3F68FF"/>
<path d="M67.5137 28.7899C67.7041 20.0652 59.98 13.904 52.5557 13.9465C45.1266 13.989 37.5785 20.1549 37.8022 28.9457C38.0259 37.8074 45.2408 43.6995 52.6651 43.572C61.6314 43.4162 67.3519 36.1975 67.5137 28.7947V28.7899ZM52.7936 34.9275C48.9196 34.9794 45.1694 32.5669 45.0457 28.9363C44.9315 25.3387 48.8721 22.8224 52.7413 22.8082C56.6152 22.794 60.632 25.3104 60.532 28.8844C60.4511 31.9154 57.4576 34.8661 52.7841 34.9322L52.7936 34.9275Z" fill="#3F68FF"/>
</svg>

<svg xmlns="http://www.w3.org/2000/svg" width="249" height="111" fill="none" xmlns:v="https://vecta.io/nano"><path d="M51.49 72.239v15.915h-9.761V72.905c0-5.812-.976-7.445-4.574-7.445-5.306 0-6.53 4.598-6.53 11.982v10.712h-9.761V72.905c0-5.812-.976-7.445-4.573-7.445-5.307 0-6.53 4.598-6.53 11.982v10.712H0V57.589h9.761v3.088l-1.832 5.448h2.441c1.218-5.448 4.026-9.14 10.004-9.14s8.238 3.815 9.152 9.14h1.77c1.218-5.448 3.964-9.14 9.947-9.14 7.872 0 10.251 7.02 10.251 15.249l-.005.005zm3.659 15.915V79.68h8.724V65.7l-7.505.364V57.59l11.593-.604c3.417-.179 5.307 1.695 5.307 5.085v17.61h8.724v8.475H55.149h0zm40.268-11.316v11.317h-9.761V57.589h9.761v3.692l-1.832 5.448h2.442c1.218-5.448 5.064-9.744 11.65-9.744 7.872 0 12.631 5.203 12.631 14.645v16.524h-9.761V73.146c0-5.566-1.647-7.686-6.344-7.686-5.306 0-8.785 2.785-8.785 11.378h0zm45.021 3.451l11.346-.604v8.475l-15.924.604c-3.355.123-5.187-1.818-5.187-5.146V66.064h-7.32V57.59h7.32v-5.75l9.761-3.026v8.777h10.127v8.474h-10.127v14.22l.004.005z" fill="#000"/><path d="M162.307 102.521l11.346-.605v8.475l-15.924.604c-3.356.123-5.188-1.817-5.188-5.146V88.296h-7.32v-8.102l7.32-.741v-5.377l9.761-3.026v8.777h10.128v8.475h-10.128v14.22h.005zm30.016-23.299c9.58 0 16.291 5.628 16.291 14.891v3.026h-23.368c0 3.507 2.561 5.991 8.115 5.991 3.417 0 5.977-1.209 6.586-3.508h9.761c-.609 4.419-5.673 11.378-16.347 11.378-11.837 0-17.267-7.625-17.267-16.279 0-9.683 6.649-15.495 16.229-15.495v-.005zm7.139 12.469c0-2.299-1.709-4.599-7.139-4.599s-7.077 2.299-7.077 4.599h14.216zm25.623.722l9.699-1.331c0-2.483-1.951-3.994-6.163-3.994-3.902 0-6.101 1.633-6.101 4.419h-9.152c0-7.748 6.649-12.285 15.253-12.285s15.924 4.055 15.924 14.102v8.592H249v8.475h-6.772c-2.927 0-4.574-1.634-4.574-4.537v-.604l1.523-3.631h-2.441c-1.162 5.085-4.15 9.381-12.75 9.381-9.58 0-11.227-5.812-11.227-8.956 0-5.264 3.174-8.352 12.321-9.622l.005-.009zm.795 10.108c5.368 0 8.909-2.238 8.909-5.991l-7.872 1.091c-2.926.425-4.392.845-4.392 2.602s1.708 2.299 3.355 2.299zM67.009 44.573c-2.632.014-5.311 2.2-5.23 5.316.081 3.144 2.637 5.231 5.268 5.184 3.179-.057 5.206-2.616 5.264-5.241.067-3.092-2.67-5.278-5.302-5.264v.005zm8.139-26.439c5.492-.094 8.99-4.513 9.09-9.046.114-5.34-4.612-9.112-9.157-9.088s-9.171 3.801-9.033 9.178c.138 5.425 4.555 9.032 9.1 8.951v.005zm16.204 1.138c-9.176.047-18.499 7.667-18.223 18.526.276 10.944 9.185 18.224 18.361 18.063 11.07-.194 18.142-9.107 18.338-18.252.233-10.774-9.3-18.384-18.476-18.337h0zm.129 30.084c-5.197.09-10.242-4.041-10.399-10.25-.157-6.157 5.135-10.462 10.332-10.486s10.594 4.287 10.461 10.391c-.11 5.179-4.121 10.236-10.399 10.344h.005zM67.514 28.79c.19-8.725-7.534-14.886-14.958-14.843s-14.977 6.208-14.754 14.999c.224 8.862 7.439 14.754 14.863 14.626 8.966-.156 14.687-7.375 14.849-14.777v-.005zm-14.72 6.138c-3.874.052-7.624-2.361-7.748-5.991-.114-3.598 3.826-6.114 7.696-6.128s7.891 2.502 7.791 6.076c-.081 3.031-3.074 5.982-7.748 6.048l.009-.005z" fill="#3f68ff"/></svg>
